static/images/cli.svg

<svg enable-background="new 0 0 512 512" height="512" viewBox="0 0 512 512" width="512" xmlns="http://www.w3.org/2000/svg"><g fill="#fff"><path d="m458.667 0h-405.334c-29.44.035-53.298 23.893-53.333 53.333v405.333c.035 29.441 23.893 53.299 53.333 53.334h405.333c29.441-.035 53.298-23.893 53.333-53.333v-405.334c-.034-29.44-23.892-53.298-53.332-53.333zm32 458.667c0 17.673-14.327 32-32 32h-405.334c-17.673 0-32-14.327-32-32v-405.334c0-17.673 14.327-32 32-32h405.333c17.673 0 32 14.327 32 32v405.334z"/><path d="m42.667 85.333h426.667v21.333h-426.667z"/><path d="m53.333 42.667h21.333v21.333h-21.333z"/><path d="m96 42.667h21.333v21.333h-21.333z"/><path d="m437.333 42.667h21.333v21.333h-21.333z"/><path d="m448 128h-309.333v21.333h309.333v298.667h-384v-192h-21.333v192c0 11.782 9.551 21.333 21.333 21.333h384c11.782 0 21.333-9.551 21.333-21.333v-298.667c0-11.782-9.551-21.333-21.333-21.333z"/><path d="m114.208 173.792-42.667-42.667-15.083 15.083 35.125 35.125-35.125 35.125 15.083 15.083 42.667-42.667c4.164-4.165 4.164-10.917 0-15.082z"/><path d="m128 202.667h64v21.333h-64z"/></g></svg>

<?xml version="1.0" encoding="iso-8859-1"?>
<!-- Generator: Adobe Illustrator 19.0.0, SVG Export Plug-In . SVG Version: 6.00 Build 0)  -->
<svg xmlns="http://www.w3.org/2000/svg" xmlns:xlink="http://www.w3.org/1999/xlink" version="1.1" id="Capa_1" x="0px" y="0px" viewBox="0 0 512 512" style="enable-background:new 0 0 512 512;" xml:space="preserve" width="512px" height="512px">
<g>
	<g>
		<path fill="#FFFFFF" d="M458.667,0H53.333C23.893,0.035,0.035,23.893,0,53.333v405.333C0.035,488.107,23.893,511.965,53.333,512h405.333    c29.441-0.035,53.298-23.893,53.333-53.333V53.333C511.965,23.893,488.107,0.035,458.667,0z M490.667,458.667    c0,17.673-14.327,32-32,32H53.333c-17.673,0-32-14.327-32-32V53.333c0-17.673,14.327-32,32-32h405.333c17.673,0,32,14.327,32,32    V458.667z"/>
	</g>
</g>
<g>
	<g>
		<rect x="42.667" y="85.333" width="426.667" height="21.333" fill="#FFFFFF"/>
	</g>
</g>
<g>
	<g>
		<rect x="53.333" y="42.667" width="21.333" height="21.333" fill="#FFFFFF"/>
	</g>
</g>
<g>
	<g>
		<rect x="96" y="42.667" width="21.333" height="21.333" fill="#FFFFFF"/>
	</g>
</g>
<g>
	<g>
		<rect x="437.333" y="42.667" width="21.333" height="21.333" fill="#FFFFFF"/>
	</g>
</g>
<g>
	<g>
		<path fill="#FFFFFF" d="M448,128H138.667v21.333H448V448H64V256H42.667v192c0,11.782,9.551,21.333,21.333,21.333h384    c11.782,0,21.333-9.551,21.333-21.333V149.333C469.333,137.551,459.782,128,448,128z" />
	</g>
</g>
<g>
	<g>
		<path fill="#FFFFFF" d="M114.208,173.792l-42.667-42.667l-15.083,15.083l35.125,35.125l-35.125,35.125l15.083,15.083l42.667-42.667    C118.372,184.709,118.372,177.957,114.208,173.792z" />
	</g>
</g>
<g>
	<g>
		<rect x="128" y="202.667" width="64" height="21.333" fill="#FFFFFF"/>
	</g>
</g>
<g>
</g>
<g>
</g>
<g>
</g>
<g>
</g>
<g>
</g>
<g>
</g>
<g>
</g>
<g>
</g>
<g>
</g>
<g>
</g>
<g>
</g>
<g>
</g>
<g>
</g>
<g>
</g>
<g>
</g>
</svg>
